X:92
T:score18
L:1/8
Q:1/4=96
M:4/4
I:linebreak $
K:D
 (f4- fd (3Adf | b4 c'2 d'2 | d3 e (5:4:5f/g/f/e/f/ aA | B6) (cd |$ fe g4) (^de | %5
 fgab !tenuto!b2) B2 | (c4 d2 e/d/c/d/ | e4 !tenuto!=f4) |] %8
